!!!OTL: SEI NUR STILL HAST LANG GESCHWIEGEN
!!!ARE: Europa, Mitteleuropa, Deutschland, Thueringen
!!!SCT: E0697A
!!!YEM: Copyright 1995, estate of Helmut Schaffrath.
**kern
*ICvox
*Ivox
*M4/4
*k[f#c#]
*D:
{8d
8e
8f#
8g
=1
4.a
8a
8b
8cc#
8dd
8b
=2
8b
8a
8a
8g}
{4.f#
8g
=3
4.a
8a
8b
8a
8g
8f#
=4
4f#
4e}
{8d
8e
8f#
8g
=5
4.a
8a
8b
8cc#
8dd
8b
=6
8b
8a
8a
8g}
{4.f#
8g
=7
4.a
8a
8b
8a
8g
8f#
=8
4f#
4e}
{4.a
8f#
=9
4.g
8e
8f#
8a
4f#
=10
4e
4r}
{8f#
8e
8f#
8g
=11
8a
8g
4f#}
{4e
8f#
8f#
=12
8g
8b
8a
8g
4f#
4e
=13
4d
4r}
{4.a
8f#
=14
4.g
8e
8f#
8a
4f#
=15
4e
4r}
{8f#
8e
8f#
8g
=16
8a
8g
4f#}
{4e
8f#
8f#
=17
8g
8b
8a
8g
4f#
4e
=18
4d
4r}
==
!!!AGN: Liebes - Lied, Leid, Klage
!!!ONB: ESAC (Essen Associative Code) Database: ERK2
!!!AMT: simple quadruple
!!!AIN: vox
!!!EED: Helmut Schaffrath
!!!EEV: 1.0
*-
